!!!ONB: MCCC : IES0026_01 : Extracted Monophonic Melody
!!!COM: Satie, Erik
!!!OPR: Trois Gymnopédies
!!!OMV: 1
!!!SCT: nan
!!!ODT: 1888///
**kern
*staff1
*IPiano
*clefG2
*k[f#c#]
*D:
*M3/4
4ff#
4aa
=6
4gg
4ff#
4cc#
=7
4b
4cc#
4dd
=8
2.a
=9
2.f#
=10
2.f#
=11
2.f#[
=12
2.f#]
=13
4r
4ff#
4aa
=14
4gg
4ff#
4cc#
=15
4b
4cc#
4dd
=16
2.a
=17
2.cc#
=18
2.ff#
=19
2.e
=20
2.e[
=21
2.e]
=22
4a
4b
4cc
=23
4ee
4dd
4b
=24
4dd
4cc
4b
=25
2.dd[
=26
2dd]
4dd
=27
4ee
4ff
4gg
=28
4aa
4cc
4dd
=29
4ee
4dd
4b
=30
2.dd[
=31
2dd]
4dd
=32
2.gg
=33
2.ff#
=34
4b
4a
4b
=35
4cc#
4dd
4ee
=36
4cc#
4dd
4ee
=37
2.f#
=38
2.cc
=39
2.dd
=40
2.r
=41
2.r
=42
2.r
=43
2.r
=44
4r
4ff#
4aa
=45
4gg
4ff#
4cc#
=46
4b
4cc#
4dd
=47
2.a
=48
2.f#
=49
2.f#
=50
2.f#[
=51
2.f#]
=52
4r
4ff#
4aa
=53
4gg
4ff#
4cc#
=54
4b
4cc#
4dd
=55
2.a
=56
2.cc#
=57
2.ff#
=58
2.e
=59
2.e[
=60
2.e]
=61
4a
4b
4cc
=62
4ee
4dd
4b
=63
4dd
4cc
4b
=64
2.dd[
=65
2dd]
4dd
=66
4ee
4ff
4gg
=67
4aa
4cc
4dd
=68
4ee
4dd
4b
=69
2.dd[
=70
2dd]
4dd
=71
2.gg
=72
2.ff
=73
4b
4cc
4ff
=74
4ee
4dd
4cc
=75
4ee
4dd
4cc
=76
2.f
=77
2.cc
=78
2.dd
==
*-
